X: 309
T: Beyâtî Mehter
C: Zurnazen Daği Ahmet Çelebi
O: Turkey
F: http://compmusic.upf.edu/node/140
N: beyati--mehter--yuruksemai_ii----zurnazen_dagi_ahmet_celebi
N: makam= beyati
N: form= mehter
N: usul= yuruksemai_ii = 6/8
M: 6/8
L: 1/16
K: C _2/4B   
Q: 1/4=102
%%MIDI tuningsystem comma53
e6f2e4d2e4f2e2d2c2d4_7/8e2  | d2c2_1/4B4A4A4  | \
w:   |   | 
e6f2e4d2e4f2e2d2c2d4_7/8e2  | 
w:   | 
d2c2_1/4B4A4A4  | A_1/4Bc4d2_7/8e2d2c2B4A4d4cBc2d2  | \
w:   |   | 
d2_7/8e2d2c2_1/4B4A6=e6f2e4e2  | 
w:   | 
d2e2f2e4e2d2e2  | f2g2e2f2e2f2e2d4e6f2e4e2  | \
w:   |   | 
d2e2f2e4e2d2e2  | 
w:   | 
f2g2e2f2e2f2e2d4_1/4B2c2d2_7/8e2d4d2  | \
w:   | 
c2_1/4B2_7/8e2d4cBc2d2  | 
w:   | 
d2_7/8e2d2c2_1/4B4A6B2c2d2e2d4d2  | \
w:   | 
c2_1/4B2_7/8e2d4cBc2d2  | d2_7/8e2d2c2_1/4B4A6f2=e2d2cde2d2c2  | 
w:   |   | 
_1/4B2A2Bcd4cBc2d2  | d2_7/8e2d2c2_1/4B4A6a6c'_1/4ba4a6c'ba4abc'2d'2  | 
w:   |   | 
c'_1/4bd'2c'2c'2b2c'2b2a4a6c'ba4a6c'ba4abc'2d'2  | 
w:   | 
c'_1/4bd'2c'2c'2b2c'2b2a4a2g4g2f4f2  | \
w:   | 
e4fed4c_1/4Bc2d2  | 
w:   | 
c2e2d2c2_1/4B4A6e6f2e4e2  | d2e2f2e4e2d2e2  | \
w:   |   | 
f2g2e2f2e2f2e2d4e6f2e4d2  | 
w:   | 
e4f2e2d2c2d4  | _7/8e2d2c2_1/4B4A4A4ABc4d2e2d2c2  | \
w:   |   | 
_1/4B4A4d4cBc2  | 
w:   | 
d2d2_7/8e2d2c2_1/4B4A6=e6f2e4  | e2d2e2f2e4e2d2  | \
w:   |   | 
e2f2g2e2f2e2f2e2  | 
w:   | 
d4_1/4B2c2d2_7/8e2d4  | d2c2_1/4B2_7/8e2d4cBc2  | \
w:   |   | 
d2d2_7/8e2d2c2_1/4B4A6f2=e2d2cde2d2  | 
w:   | 
c2_1/4B2A2Bcd4cBc2  | d2d2_7/8e2d2c2_1/4B4A6a6c'_1/4ba4  | \
w:   |   | 
a6c'_1/4ba4abc'2  | 
w:   | 
d'2c'_1/4bd'2c'2c'2b2c'2b2  | a4a2g4g2f4  | \
w:   |   | 
f2e4fed4c_1/4Bc2  | 
w:   | 
d2c2e2d2c2_1/4B4A6e6f2e4  | e2d2e2f2e4e2d2  | \
w:   |   | 
e2f2g2e2f2e2f2e2  | 
w:   | 
d4_1/4B2c2d2_7/8e2d4  | d2c2_1/4B2_7/8e2d4cBc2  | \
w:   |   | 
d2d2_7/8e2d2c2_1/4B4A6B2c2d2e2d4  | 
w:   | 
d2c2_1/4B2_7/8e2d4cBc2  | d2d2_7/8e2d2c2_1/4B4A6f2=e2d2cde2d2  | 
w:   |   | 
c2_1/4B2A2Bcd4cBc2  | d2d2_7/8e2d2c2_1/4B4A6B2c2d2e2d4  | 
w:   |   | 
c2d2c2_1/4B2c4B2c2  | d2_e2d4d2c2d2_1/4B2  | \
w:   |   | 
c4_1/4B2c2d2_7/8e2d4  | c2d2c2_1/4B2c4B2c2  | 
w:   |   | 
d2_e2d4d2c2d2_1/4B2  | c4f2e2d2f2e2d2  | \
w:   |   | 
c2d2e2f2e2d2c_1/4Bc2  | 
w:   | 
d2c_1/4B_e2d2c2B4A6=e6f2e4  | e2d2e2f2e4e2d2  | \
w:   |   | 
e2f2g2e2f2e2f2e2  | 
w:   | 
d4e6f2e4  | d2e4f2e2d2c2d4_7/8e2d2c2_1/4B4A4  | \
w:   |   | 
A4A_1/4Bc4d2_7/8e2d2  | 
w:   | 
c2_1/4B4A4d4cB  | c2d2d2_7/8e2d2c2_1/4B4  | \
w:   |   | 
A6e6f2e4e2d2e2f2e4e2  | 
w:   | 
d2e2f2g2e2f2e2f2  | e2d4_1/4B2c2d2_7/8e2d4d2c2B2e2d4cB  | 
w:   |   | 
c2d2d2_7/8e2d2c2_1/4B4  | A6f2e2d2cde2  | \
w:   |   | 
d2c2_1/4B2A2Bcd4cB  | 
w:   | 
c2d2d2_7/8e2d2c2_1/4B4  | A6a6c'_1/4ba4a6c'ba4ab  | \
w:   |   | 
c'2d'2c'_1/4bd'2c'2c'2b2c'2  | 
w:   | 
_1/4b2a4a2g4g2f4f2e4fed4c_1/4B  | \
w:   | 
c2d2c2e2d2c2_1/4B4  | A6e6f2e4e2d2e2f2e4e2  | 
w:   |   | 
d2e2f2g2e2f2e2f2  | e2d4_1/4B2c2d2_7/8e2d4d2c2B2e2d4cB  | 
w:   |   | 
c2d2d2_7/8e2d2c2_1/4B4  | A6f2e2d2cde2  | \
w:   |   | 
d2c2_1/4B2A2Bcd4cB  | 
w:   | 
c2d2d2_7/8e2d2c2_1/4B4  | A6_1/4B2c2d2_7/8e2d4c2d2c2B2c4B2  | \
w:   |   | 
c2d2_e2d4d2c2d2  | 
w:   | 
_1/4B2c4f2e2d2f2e2  | d2c2d2e2f2e2d2c_1/4B  | \
w:   |   | 
c2d2c_1/4B_e2d2c2B4  | 
w:   | 
A6e6f2e4e2d2e2f2e4e2  | d2e2f2g2e2f2e2f2  | \
w:   |   | 
e2d4_1/4B2c2d2_7/8e2d4d2c2B2e2d4cB  | 
w:   | 
c2d2d2_7/8e2d2c2_1/4B4  | A6_1/4B2c2d2_7/8e2d4d2c2B2e2d4cB  | \
w:   |   | 
c2d2d2_7/8e2d2c2_1/4B4  | 
w:   | 
A6f2e2d2cde2  | d2c2_1/4B2A2Bcd4cB  | \
w:   |   | 
c2d2d2_7/8e2d2c2_1/4B4  | 
w:   | 
A6|
w:   | 


